client/src/assets/icons/cart.svg

<svg xmlns="http://www.w3.org/2000/svg" width="24" height="24" viewBox="0 0 24 24" fill="none">
  <path
    d="M9.375 20.25C9.375 20.6208 9.26503 20.9834 9.059 21.2917C8.85298 21.6 8.56014 21.8404 8.21753 21.9823C7.87492 22.1242 7.49792 22.1613 7.1342 22.089C6.77049 22.0166 6.4364 21.838 6.17417 21.5758C5.91195 21.3136 5.73337 20.9795 5.66103 20.6158C5.58868 20.2521 5.62581 19.8751 5.76773 19.5325C5.90964 19.1899 6.14996 18.897 6.45831 18.691C6.76665 18.485 7.12916 18.375 7.5 18.375C7.99728 18.375 8.47419 18.5725 8.82582 18.9242C9.17745 19.2758 9.375 19.7527 9.375 20.25ZM17.25 18.375C16.8792 18.375 16.5166 18.485 16.2083 18.691C15.9 18.897 15.6596 19.1899 15.5177 19.5325C15.3758 19.8751 15.3387 20.2521 15.411 20.6158C15.4834 20.9795 15.662 21.3136 15.9242 21.5758C16.1864 21.838 16.5205 22.0166 16.8842 22.089C17.2479 22.1613 17.6249 22.1242 17.9675 21.9823C18.3101 21.8404 18.603 21.6 18.809 21.2917C19.015 20.9834 19.125 20.6208 19.125 20.25C19.125 19.7527 18.9275 19.2758 18.5758 18.9242C18.2242 18.5725 17.7473 18.375 17.25 18.375ZM22.0753 7.08094L19.5169 15.3966C19.3535 15.9343 19.0211 16.4051 18.569 16.739C18.1169 17.0729 17.5692 17.2521 17.0072 17.25H7.77469C7.2046 17.2482 6.65046 17.0616 6.1953 16.7183C5.74015 16.3751 5.40848 15.8936 5.25 15.3459L2.04469 4.125H1.125C0.826631 4.125 0.540483 4.00647 0.329505 3.7955C0.118526 3.58452 0 3.29837 0 3C0 2.70163 0.118526 2.41548 0.329505 2.2045C0.540483 1.99353 0.826631 1.875 1.125 1.875H2.32687C2.73407 1.87626 3.12988 2.00951 3.45493 2.25478C3.77998 2.50004 4.01674 2.84409 4.12969 3.23531L4.81312 5.625H21C21.1761 5.62499 21.3497 5.6663 21.5069 5.74561C21.664 5.82492 21.8004 5.94001 21.905 6.08164C22.0096 6.22326 22.0795 6.38746 22.1091 6.56102C22.1387 6.73458 22.1271 6.91266 22.0753 7.08094ZM19.4766 7.875H5.45531L7.41375 14.7281C7.43617 14.8065 7.48354 14.8755 7.54867 14.9245C7.6138 14.9736 7.69315 15.0001 7.77469 15H17.0072C17.0875 15.0002 17.1656 14.9746 17.2303 14.927C17.2949 14.8794 17.3426 14.8123 17.3662 14.7356L19.4766 7.875Z"
    fill="black" />
</svg>

<svg xmlns="http://www.w3.org/2000/svg" width="24" height="24" fill="none"><path fill="#000" d="M9.375 20.25a1.875 1.875 0 1 1-3.75 0 1.875 1.875 0 0 1 3.75 0m7.875-1.875a1.875 1.875 0 1 0 0 3.75 1.875 1.875 0 0 0 0-3.75m4.825-11.294-2.558 8.316a2.61 2.61 0 0 1-2.51 1.853H7.775a2.64 2.64 0 0 1-2.525-1.904L2.045 4.125h-.92a1.125 1.125 0 0 1 0-2.25h1.202a1.88 1.88 0 0 1 1.803 1.36l.683 2.39H21a1.125 1.125 0 0 1 1.075 1.456m-2.598.794H5.455l1.959 6.853a.375.375 0 0 0 .36.272h9.233a.375.375 0 0 0 .36-.264z"/></svg>
